X: 1257
T: An Drochaid Chliùiteach
R: three-two
M: 3/2
K: Amixolydian
M:6/4
|:{g}ce {g}e{A}e {g}fe {A}ef {g}e{A}e {ag}a2|{g}ce {g}e{A}e {g}fe {A}ef {g}ec B{G}B|
{g}ce {g}e{A}e {g}fe {A}ef {g}e{A}e {ag}a2|{g}A{d}A {e}AB {gcd}c2 {g}ce {g}BG {g}A{d}A:|
|:ae {g}e{A}e {g}fe {A}ef {g}e{A}e {ag}a2|{ag}ae {g}e{A}e {g}fe {A}ef {g}ec B{G}B|
ae {g}e{A}e {g}fe {A}ef {g}e{A}e {ag}a2|{g}A{d}A {e}AB {gcd}c2 {g}ce {g}BG {g}A{d}A:|

